!!!COM: Anon.
!!!OTL: Song on the Roof of the Lodge
!!!MPN: Nalipitsitsakis [Good Bear]
!!!ODT: <1918//
!!!MLC: Fort Berthold Reservation, North Dakota, United States of America
!! Song was recorded during either the summer of 1912, 1915, or 1918.
!!!AGN: monody
!!!AST: Mandan and Hidatsa Miscellaneous Songs
!!!AMT: irregular
!!!RWG: Transcribed pitches, durations, and meters are only approximate.
!! Drum not recorded.
**kern
*ICvox
*Imale
*clefF4
*k[b-e-a-d-]
*M3/4
*MM56
=1-
4f
16g
[8.f
8f]
16f
16f
=2
16g
8.f
16c
[8.c
8.c]
16d-^
=3
4f
8g
[8f
8.f]
16f
*M2/4
=4
16g
8.f
16c
8.c
=5
16d-
8.c
16c
8.A-
*M3/4
=6
4c
16d-
8.c
16c
8A-
16c
=7
16c
8.A-
16F
8.F
16G
8.F
=8
4F
16A-
[8.F
8.F]
16E-^
=9
8.F
16E-
2C
*M2/4
=10
8C
[8C
8C]
8C
=11
4C
4C
==
*-
!!!CNT: Hidatsa
!!!TXO: Hidatsa
!!!OCY: United States
!!!OCL: Frances Densmore
!!!YOR: Frances Densmore, "Mandan and Hidatsa Music",
!!!YOR: Bulletin 80, page 178, No. 110
!!!PPR: Smithsonian Institution, Bureau of American Ethnology
!!!PPR: Government Printing Office
!!!PDT: 1923
!!!PPP: Washington, DC, United States of America
!!!YEC: Electronic Copyright 2000 David Huron
!!!YER: August 2000
!!!YEN: United States of America
!!!ENC: David Huron
!!!RDT: August 18, 2000
!!!EEV: Release 1.0
!!!AIN: tom, vox
